src/images/m-top-cabbage.svg

<svg width="49" height="89" viewBox="0 0 49 89" fill="none" xmlns="http://www.w3.org/2000/svg">
<path d="M41.3468 -3.64144e-06C45.3208 -0.000445799 49.2206 0.85986 53.0172 2.57914C57.3957 4.5619 61.6013 6.99729 65.5166 9.81721C65.6878 9.94049 65.8491 10.0713 66.0016 10.2097L70.2134 6.81926C70.5055 6.58337 70.9144 6.55711 71.2345 6.75384C71.3803 6.84329 74.8435 8.98405 77.7756 12.4075C80.7179 15.8425 82.0074 19.2161 82.0608 19.3576C82.1772 19.6665 82.1132 20.0149 81.895 20.2615L79.3065 23.1896C79.2429 23.2612 79.1709 23.32 79.0936 23.3658C80.4169 25.9423 82.1932 30.7361 82.8338 38.6293C83.4005 45.619 82.5164 51.3505 80.2062 55.665C80.0826 55.896 79.8999 56.2738 79.7021 56.6819C79.3634 57.3807 79.0136 58.1039 78.7722 58.4987C78.5344 58.8877 78.2757 59.3358 77.9885 59.8325C75.7606 63.689 71.6141 70.8665 62.1401 76.3364C54.1107 80.9717 50.1154 81.4537 46.5908 81.8792C44.494 82.132 42.6839 82.351 40.247 83.4423C34.0469 86.2177 32.8085 88.4888 32.7965 88.5115C32.6782 88.7376 32.4649 88.9103 32.2173 88.9717C31.971 89.034 31.7043 88.9935 31.4945 88.8484C30.845 88.3989 27.6027 86.0419 27.5676 83.764C27.5502 82.6598 27.933 81.9041 28.2126 81.3531C28.4993 80.7875 28.4891 80.7741 28.3682 80.6125C28.2384 80.4399 28.0019 80.3446 27.6267 80.2035C26.7314 79.8666 25.3788 79.3584 25.3161 76.7432C25.2659 74.6603 26.3643 73.4973 27.2582 72.6539C25.4912 71.7718 20.9602 69.3649 17.3663 66.2121C15.0446 64.1755 13.2238 61.7944 12.1045 60.1565C11.2511 58.9068 10.7368 58.0825 10.4429 57.5182C9.29785 58.1391 8.51949 58.4057 7.9145 58.6131C7.2046 58.8561 6.81343 58.9905 6.1991 59.5606C4.15564 61.457 0.816859 59.9665 0.413233 59.687C0.185198 59.5294 0.037173 59.2811 0.00694537 59.0065C-0.0495121 58.4965 0.241649 58.1809 0.770633 57.6081C1.65033 56.6557 3.47998 54.6738 4.35879 51.3109C5.14604 48.2974 4.98156 44.7952 4.83665 41.706C4.74508 39.7553 4.65884 37.9132 4.83442 36.4569C5.4083 31.6965 6.60272 21.7898 13.9048 13.6465C17.3965 9.75222 21.7786 6.3506 26.3114 3.96595C26.3905 3.90587 26.4785 3.86092 26.5714 3.83021C27.6898 3.25207 28.8158 2.73669 29.9391 2.29118C33.7909 0.763278 37.6022 -3.96881e-06 41.3468 -3.64144e-06ZM46.229 2.2805C39.5865 1.03521 33.1192 2.52706 27.4822 5.37859C27.0915 6.1748 25.9607 8.83895 26.0451 12.8672C26.1438 17.6143 26.9657 19.1137 26.9742 19.1279C27.2129 19.5485 27.0773 20.0919 26.6625 20.3403C26.2478 20.5891 25.7153 20.468 25.4583 20.0586C25.3481 19.8828 24.3773 18.1897 24.267 12.9046C24.2128 10.2827 24.6231 8.18649 25.0681 6.71066C21.2421 8.99962 17.8842 11.8734 15.2282 14.8348C13.8497 16.3721 12.7002 17.9801 11.7387 19.6068C12.0641 20.403 12.7967 22.7036 12.3988 26.5663C11.9356 31.065 11.7654 33.5182 11.7636 33.5422C11.7303 34.0327 11.2986 34.398 10.8159 34.3691C10.3256 34.3357 9.95573 33.9107 9.98996 33.4202C9.99174 33.3953 10.1638 30.9168 10.6301 26.3834C10.8337 24.4019 10.7114 22.8981 10.5247 21.8624C7.68245 27.6816 6.99079 33.4211 6.59916 36.6697C6.44181 37.9777 6.52449 39.7477 6.61206 41.6214C6.7632 44.8388 6.93434 48.4847 6.07819 51.7604C5.16293 55.2626 3.35996 57.4092 2.31889 58.5512C3.14703 58.767 4.31523 58.8814 4.99001 58.2543C5.88127 57.4274 6.55649 57.196 7.3384 56.928C8.07763 56.6753 8.9969 56.3601 10.5967 55.3699C12.0734 54.4557 12.1085 53.2576 12.0436 51.3777C12.0001 50.1342 11.9516 48.7246 12.6771 47.4789C13.9457 45.3003 15.4904 45.801 16.5119 46.1299C17.0649 46.3088 17.5459 46.4646 18.0473 46.348C18.0944 45.9635 17.7659 44.8855 17.5219 44.0844C16.9609 42.2432 16.1932 39.7219 16.6089 37.177C16.8413 35.7555 17.2672 34.8858 17.9495 34.4403C18.7457 33.9196 19.5934 34.1372 20.2739 34.3135C21.1687 34.544 21.343 34.5231 21.5999 34.1497C22.5836 32.7246 22.8583 31.4237 23.2389 29.6234C23.3993 28.8646 23.5816 28.0043 23.8403 27.0367C24.2444 25.5253 25.02 24.4682 26.1465 23.895C27.8579 23.0236 30.3227 23.2635 33.9015 24.6498C36.918 25.8181 39.6638 26.0869 41.4357 26.1061C41.445 26.1061 41.4544 26.1061 41.4637 26.1061C42.2363 26.1061 42.9337 25.7447 43.701 25.1803C48.8334 20.2553 54.4854 17.4763 60.0553 17.224C61.1315 17.1754 62.265 17.2155 63.4127 17.3214C64.6641 17.0068 65.4184 16.0383 65.7256 15.113C66.1083 13.9612 65.9821 12.3447 64.4782 11.2623C60.658 8.51095 56.5556 6.13475 52.2842 4.20095C50.9933 3.61658 49.7011 3.14927 48.4138 2.78965C47.8461 3.21869 45.2194 5.30471 42.7968 8.90348C42.984 9.32808 44.0779 11.8974 44.2104 14.173C44.2762 15.3079 44.3144 16.7673 44.1242 17.2751L42.4599 16.6485C42.4599 16.6485 42.4488 16.6685 42.4363 16.7219C42.4412 16.7014 42.547 16.1981 42.435 14.2767C42.3656 13.0822 41.9647 11.7377 41.6291 10.7946C38.9264 15.4851 38.529 17.1563 38.5254 17.1732C38.4183 17.6485 37.9467 17.953 37.471 17.8515C36.995 17.7496 36.6882 17.2872 36.7851 16.8096C36.8243 16.616 37.2554 14.7681 40.3097 9.52391C42.3812 5.9674 44.7892 3.54537 46.229 2.2805ZM80.1924 19.5009C79.7404 18.4839 78.5273 16.02 76.4251 13.566C74.3248 11.1132 71.8724 9.32452 70.8233 8.61198L67.4961 11.2908C68.7145 12.2272 70.67 13.7498 71.9177 14.8237C75.2169 17.6601 77.5933 20.9255 77.6929 21.0635C77.7338 21.12 77.7667 21.1797 77.7929 21.2406C77.8956 21.3768 78.025 21.5566 78.1748 21.7832L80.1924 19.5009ZM74.2772 19.6838C73.3402 18.6201 72.1258 17.3486 70.7597 16.174C69.924 15.4553 68.7345 14.5082 67.6814 13.6857C67.7197 14.3391 67.6334 15.0115 67.4125 15.676C67.1525 16.4593 66.7342 17.1394 66.1994 17.6882C69.2626 18.2022 72.2062 19.0282 74.2772 19.6838ZM76.3345 22.2647C75.1169 21.8188 69.0648 19.6825 63.4963 19.1208C63.1491 19.1845 62.7877 19.2129 62.4201 19.2067C60.7025 19.1756 59.06 19.2975 57.5429 19.5748C51.9681 20.5949 48.3355 23.6502 46.1654 25.4759C45.7831 25.7981 45.4399 26.0856 45.1345 26.3255C45.0381 26.4012 44.9403 26.4764 44.8416 26.5507C43.3067 28.0345 41.8162 29.7236 40.3893 31.6066C34.7483 39.0512 35.0991 42.6113 35.2675 44.3216L35.2916 44.5704C35.3311 45.0128 35.5792 45.8144 35.8419 46.6622C36.5246 48.8671 37.4595 51.8864 36.5762 54.1144C35.761 56.1706 33.6846 56.3557 31.6772 56.5346C30.2374 56.6628 28.7482 56.7959 27.5876 57.5663C25.1005 59.2179 26.354 63.4674 27.4862 65.7172C27.9339 66.6064 28.4855 67.2753 28.9723 67.865C29.8066 68.8758 30.669 69.9212 30.2743 71.4976C30.0222 72.5048 29.3252 73.1555 28.6518 73.7848C27.7974 74.5833 27.0591 75.2731 27.0933 76.6995C27.1275 78.1135 27.5271 78.2635 28.2517 78.5363C28.7376 78.7188 29.3421 78.9462 29.7893 79.5426C30.5859 80.6036 30.1307 81.5018 29.7986 82.1578C29.5604 82.6278 29.3354 83.072 29.3457 83.7356C29.3581 84.5692 30.6463 85.9204 31.8065 86.8581C32.7098 85.7989 34.8217 83.9203 39.5207 81.8164C42.2034 80.6157 44.2308 80.3709 46.3774 80.1118C49.7335 79.7068 53.5373 79.248 61.2519 74.7942C70.3139 69.5625 74.1545 62.9142 76.4491 58.9411C76.7443 58.4306 77.011 57.9695 77.2551 57.5694C77.4511 57.2485 77.812 56.5035 78.1014 55.9053C78.3121 55.4709 78.5068 55.0695 78.6384 54.8233C80.6281 51.1088 81.4731 46.198 81.1566 40.2097C79.8257 44.6964 77.1079 51.3674 71.7283 57.5667C62.7104 67.9594 45.1897 73.6304 44.4482 73.8667C43.9788 74.0145 43.48 73.7563 43.3316 73.2881C43.1827 72.8199 43.4409 72.3192 43.9086 72.1701C44.077 72.1163 60.0037 66.9593 69.0386 57.8484C67.2876 57.2712 63.2216 56.1145 60.3944 56.762C59.2316 57.0277 58.2265 57.2801 57.3401 57.5031C55.146 58.055 53.5608 58.4537 51.6952 58.5263C51.6836 58.5272 51.6712 58.5272 51.6601 58.5272C51.1849 58.5272 50.7906 58.1511 50.7724 57.6718C50.7533 57.1804 51.1351 56.7665 51.6259 56.7478C53.227 56.685 54.6721 56.3379 56.6102 55.8514L54.878 54.1869C54.5237 53.846 54.5121 53.283 54.8517 52.9283C55.1927 52.5736 55.7545 52.562 56.1088 52.902L58.6501 55.3441C59.0747 55.2413 59.5236 55.1344 59.9997 55.0259C63.8679 54.1437 69.3155 56.0361 70.365 56.4234C70.3721 56.4153 70.3792 56.4069 70.3863 56.3989C73.2731 53.072 75.3663 49.5712 76.875 46.376C74.5048 47.6672 70.6348 49.3335 68.1717 48.1024C66.5359 47.2853 65.2913 45.8148 64.0866 44.3928C62.7704 42.8382 61.5271 41.37 59.8979 40.8181C59.4329 40.6605 59.1836 40.1554 59.3409 39.6894C59.4983 39.2239 60.0019 38.9737 60.4682 39.1318C62.5641 39.8421 64.0275 41.5702 65.4428 43.2415C65.9567 43.8485 66.4581 44.4405 66.9742 44.9679C67.3472 43.8116 67.969 41.6241 67.9891 39.8381C68.0175 37.295 66.7493 33.694 66.7368 33.6579C66.5724 33.1946 66.8137 32.6855 67.276 32.5208C67.7383 32.3552 68.2473 32.5973 68.4118 33.0606C68.4687 33.2195 69.7996 36.9946 69.7676 39.8576C69.7396 42.3714 68.7198 45.4036 68.4345 46.2038C68.6078 46.3164 68.7843 46.4183 68.9652 46.5091C71.1843 47.6164 76.2798 44.7751 77.8903 43.6919C77.9512 43.6509 78.0152 43.6184 78.0814 43.5944C80.0893 38.5282 80.5774 34.7715 80.5854 34.7056C80.5867 34.6971 80.5876 34.6891 80.589 34.6807C79.363 26.6237 76.9114 23.0196 76.3345 22.2647ZM41.1276 27.8819C39.2064 27.8351 36.3655 27.5134 33.2601 26.3108C30.2698 25.1523 28.1468 24.8741 26.9519 25.483C26.2856 25.8217 25.83 26.4808 25.5575 27.4978C25.3112 28.4191 25.1418 29.2189 24.9787 29.9919C24.5871 31.8434 24.2492 33.4425 23.0628 35.1613C22.0613 36.6131 20.6646 36.2526 19.8307 36.0372C19.4698 35.9446 19.0613 35.8387 18.9212 35.9313C18.8639 35.9687 18.5674 36.2188 18.3634 37.465C18.0144 39.6 18.6843 41.7986 19.2226 43.565C19.7218 45.2042 20.0828 46.3885 19.5902 47.2728C19.4382 47.5452 19.1342 47.9031 18.5461 48.0579C17.5232 48.3272 16.6595 48.0486 15.9652 47.8243C14.993 47.5109 14.761 47.4344 14.2124 48.3762C13.7461 49.1773 13.7817 50.216 13.8199 51.3158C13.8786 53.0084 13.9511 55.0877 11.9765 56.5796C12.6228 57.751 14.973 61.7445 18.5381 64.8729C22.2898 68.1646 27.2702 70.681 28.4788 71.2693C28.5082 71.2026 28.5322 71.1345 28.5495 71.065C28.7118 70.4166 28.4508 70.0294 27.6014 68.9995C27.0817 68.3702 26.4354 67.5864 25.898 66.5192C24.1639 63.073 23.3082 58.2721 26.6043 56.0829C28.141 55.0628 29.9355 54.903 31.5189 54.7615C33.4308 54.591 34.531 54.4464 34.923 53.4574C35.5752 51.8134 34.7475 49.1408 34.1434 47.1892C33.8393 46.2078 33.577 45.36 33.5201 44.7302L33.4979 44.497C33.3068 42.5601 32.9103 38.5309 38.9722 30.5305C39.6758 29.6029 40.3951 28.7195 41.1276 27.8819Z" fill="#DFE2EB"/>
</svg>

<svg fill="none" xmlns="http://www.w3.org/2000/svg" viewBox="0 0 49 89"><path d="M41.347 0c3.974 0 7.874.86 11.67 2.58a72.878 72.878 0 0 1 12.5 7.237c.17.123.332.254.485.393l4.211-3.39a.886.886 0 0 1 1.022-.066c.145.09 3.609 2.23 6.54 5.654 2.943 3.434 4.232 6.808 4.286 6.95a.89.89 0 0 1-.166.904l-2.588 2.928a.895.895 0 0 1-.213.176c1.323 2.576 3.1 7.37 3.74 15.263.566 6.99-.318 12.721-2.628 17.036-.123.231-.306.609-.504 1.017-.339.699-.688 1.422-.93 1.817-.238.389-.496.837-.784 1.334-2.227 3.856-6.374 11.034-15.848 16.503-8.03 4.636-12.025 5.118-15.55 5.543-2.096.253-3.906.472-6.343 1.563-6.2 2.776-7.438 5.047-7.45 5.07a.91.91 0 0 1-.58.46.89.89 0 0 1-.723-.124c-.649-.45-3.891-2.806-3.926-5.084-.018-1.104.365-1.86.645-2.41.286-.567.276-.58.155-.742-.13-.172-.366-.267-.741-.408-.896-.337-2.248-.846-2.31-3.46-.051-2.084 1.047-3.247 1.941-4.09-1.767-.882-6.298-3.29-9.892-6.442-2.321-2.037-4.142-4.418-5.261-6.056-.854-1.25-1.368-2.073-1.662-2.638-1.145.621-1.924.888-2.528 1.095-.71.243-1.102.377-1.716.948-2.043 1.896-5.382.406-5.786.126a.954.954 0 0 1-.406-.68c-.057-.51.235-.826.764-1.399.88-.952 2.709-2.934 3.588-6.297.787-3.014.623-6.516.478-9.605-.092-1.95-.178-3.793-.003-5.25.574-4.76 1.769-14.666 9.07-22.81 3.492-3.894 7.875-7.295 12.407-9.68a.89.89 0 0 1 .26-.136 37.274 37.274 0 0 1 3.368-1.539C33.791.763 37.602 0 41.347 0Zm4.882 2.28c-6.642-1.245-13.11.247-18.747 3.099-.39.796-1.521 3.46-1.437 7.488.099 4.747.92 6.247.93 6.26a.9.9 0 0 1-.313 1.213.88.88 0 0 1-1.204-.281c-.11-.176-1.08-1.87-1.191-7.154-.054-2.622.356-4.719.801-6.194a43.162 43.162 0 0 0-9.84 8.124 29.977 29.977 0 0 0-3.49 4.772c.326.796 1.059 3.097.66 6.96-.462 4.498-.633 6.951-.634 6.975a.897.897 0 0 1-.948.827.889.889 0 0 1-.826-.949c.002-.025.174-2.503.64-7.037.204-1.981.081-3.485-.105-4.52C7.682 27.681 6.99 33.42 6.599 36.67c-.157 1.308-.075 3.078.013 4.951.151 3.218.322 6.864-.534 10.14-.915 3.502-2.718 5.648-3.76 6.79.829.216 1.997.33 2.672-.297.891-.827 1.566-1.058 2.348-1.326.74-.253 1.659-.568 3.259-1.558 1.476-.914 1.511-2.112 1.447-3.992-.044-1.244-.092-2.653.633-3.9 1.269-2.178 2.813-1.677 3.835-1.348.553.179 1.034.335 1.535.218.047-.384-.281-1.462-.525-2.264-.561-1.84-1.329-4.362-.913-6.907.232-1.422.658-2.291 1.34-2.737.797-.52 1.644-.303 2.325-.127.895.231 1.069.21 1.326-.163.984-1.425 1.258-2.726 1.639-4.527.16-.758.343-1.619.601-2.586.404-1.512 1.18-2.569 2.306-3.142 1.712-.871 4.177-.631 7.755.755a21.742 21.742 0 0 0 7.535 1.456h.028c.772 0 1.47-.361 2.237-.926 5.132-4.925 10.784-7.704 16.354-7.956a24.703 24.703 0 0 1 3.358.097c1.251-.314 2.005-1.283 2.313-2.208.382-1.152.256-2.768-1.248-3.85A71.068 71.068 0 0 0 52.284 4.2a26.984 26.984 0 0 0-3.87-1.411c-.568.429-3.195 2.515-5.617 6.113.187.425 1.28 2.994 1.413 5.27.066 1.135.104 2.594-.086 3.102l-1.664-.627s-.011.02-.024.074c.005-.02.111-.524-.001-2.445-.07-1.195-.47-2.54-.806-3.482-2.703 4.69-3.1 6.361-3.104 6.378a.894.894 0 0 1-1.054.679.886.886 0 0 1-.686-1.042c.04-.194.47-2.042 3.525-7.286 2.071-3.557 4.48-5.979 5.919-7.243ZM80.192 19.5a25.24 25.24 0 0 0-3.767-5.934c-2.1-2.453-4.553-4.241-5.602-4.954l-3.327 2.679c1.219.936 3.174 2.459 4.422 3.533 3.299 2.836 5.675 6.101 5.775 6.24.04.056.074.116.1.177.103.136.232.316.382.542l2.017-2.282Zm-5.915.184c-.937-1.064-2.151-2.335-3.517-3.51-.836-.719-2.026-1.666-3.079-2.488a5.311 5.311 0 0 1-.269 1.99 5.228 5.228 0 0 1-1.213 2.012c3.064.514 6.007 1.34 8.078 1.996Zm2.058 2.58c-1.218-.445-7.27-2.581-12.839-3.143a5.462 5.462 0 0 1-1.076.086c-1.718-.031-3.36.09-4.877.368-5.575 1.02-9.207 4.075-11.378 5.9-.382.323-.725.61-1.03.85l-.293.226a43.902 43.902 0 0 0-4.453 5.056c-5.64 7.444-5.29 11.004-5.122 12.715l.025.248c.04.443.287 1.244.55 2.092.683 2.205 1.617 5.224.734 7.452-.815 2.057-2.891 2.242-4.899 2.42-1.44.129-2.929.262-4.09 1.032-2.486 1.652-1.233 5.901-.1 8.151.447.89.998 1.558 1.485 2.148.835 1.01 1.697 2.056 1.302 3.633-.252 1.007-.949 1.657-1.622 2.287-.855.798-1.593 1.488-1.559 2.915.035 1.413.434 1.563 1.159 1.836.486.183 1.09.41 1.537 1.007.797 1.06.342 1.959.01 2.615-.239.47-.464.914-.453 1.578.012.833 1.3 2.184 2.46 3.122.904-1.06 3.016-2.938 7.715-5.042 2.682-1.2 4.71-1.445 6.856-1.704 3.356-.405 7.16-.864 14.875-5.318 9.062-5.231 12.902-11.88 15.197-15.853.295-.51.562-.972.806-1.372.196-.32.557-1.066.846-1.664.211-.434.406-.836.537-1.082 1.99-3.714 2.835-8.625 2.519-14.613-1.331 4.486-4.05 11.157-9.429 17.357-9.018 10.392-26.538 16.063-27.28 16.3a.89.89 0 0 1-.54-1.697c.169-.054 16.096-5.21 25.13-14.322-1.75-.577-5.816-1.733-8.644-1.086-1.162.266-2.167.518-3.054.741-2.194.552-3.78.95-5.645 1.023l-.035.001a.89.89 0 0 1-.034-1.78c1.601-.062 3.046-.41 4.984-.896l-1.732-1.664a.889.889 0 1 1 1.23-1.285l2.542 2.442c.425-.103.874-.21 1.35-.318 3.868-.882 9.316 1.01 10.365 1.397l.021-.024c2.887-3.327 4.98-6.828 6.489-10.023-2.37 1.291-6.24 2.958-8.703 1.726-1.636-.817-2.88-2.287-4.085-3.71-1.317-1.554-2.56-3.022-4.19-3.574a.89.89 0 0 1 .571-1.686c2.096.71 3.56 2.438 4.975 4.11.514.607 1.015 1.199 1.531 1.726.373-1.156.995-3.344 1.015-5.13.028-2.543-1.24-6.144-1.252-6.18a.888.888 0 1 1 1.675-.597c.057.158 1.388 3.934 1.356 6.797-.028 2.513-1.048 5.546-1.334 6.346.174.112.35.214.531.305 2.22 1.107 7.315-1.734 8.925-2.817a.877.877 0 0 1 .191-.098c2.008-5.066 2.496-8.822 2.504-8.888l.004-.025c-1.226-8.057-3.678-11.661-4.254-12.416Zm-35.207 5.618a23.573 23.573 0 0 1-7.868-1.571c-2.99-1.159-5.113-1.437-6.308-.828-.666.339-1.122.998-1.395 2.015a45.887 45.887 0 0 0-.578 2.494c-.392 1.851-.73 3.45-1.916 5.17-1.002 1.451-2.398 1.09-3.232.875-.361-.092-.77-.198-.91-.106-.057.038-.354.288-.558 1.534-.349 2.135.321 4.334.86 6.1.499 1.64.86 2.824.367 3.708-.152.272-.456.63-1.044.785-1.023.27-1.886-.01-2.58-.234-.973-.313-1.205-.39-1.754.552-.466.801-.43 1.84-.392 2.94.059 1.692.131 3.772-1.844 5.264.647 1.171 2.997 5.165 6.562 8.293 3.752 3.292 8.732 5.808 9.94 6.396.03-.066.054-.135.071-.204.163-.648-.098-1.036-.948-2.066-.52-.629-1.166-1.413-1.703-2.48-1.734-3.446-2.59-8.247.706-10.436 1.537-1.02 3.332-1.18 4.915-1.322 1.912-.17 3.012-.315 3.404-1.304.652-1.644-.175-4.316-.78-6.268-.304-.981-.566-1.829-.623-2.459l-.022-.233c-.191-1.937-.588-5.966 5.474-13.966a49.072 49.072 0 0 1 2.156-2.65Z" fill="#DFE2EB"/></svg>
